X:9
T:Mui\~neira de Praducelo
R:muineira
O:Galicia
Z:id:hn-muineira-9
M:6/8
L:1/8
K:D
dcd | A3 dcd | A3 dcd | ABA GFG | B2A
dcd | A3 dcd | A3 dcd | ABA GFE | D3 :|
|: DEF | G2G GFE | F2F FED | E2E EFG | A2A
DEF | G2G GFE | F2F FED | E2E EDC | D3 :|

